X:1
T:Title
%%score { ( 1 3 ) | ( 2 4 5 ) }
L:1/8
Q:1/4=110
M:4/4
K:Ab
V:1 treble nm="Grand Piano"
V:3 treble 
V:2 bass 
V:4 bass 
V:5 bass 
V:1
 [CE]4 [DF]2 [CE]2 | [CA]3 [DF] [CE]4 | [A,DF]4 [DFB]2 [B,FA]2 | [CA]4 G4 | [A,EA]4 [EB]2 [Ec]2 | %5
w: Robert~Lowry * *|||||
 z4 B4 | A4 [FB]2 [FB]2 | [=Ec]8 | [Fd]4 [DEG]2 [DEG]2 | [CEA]3 [A,CE] [A,CE]4 | %10
w: |||||
 [A,DF]4 [A,FA]2 [Fd]2 | z4 B4[K:bass] | z4 z2 c2 | [Fd]3 [A,DF] [A,DF]4 | [DFB]4 [CEA]2 [B,DG]2 | %15
w: |||||
 [A,CA]8 |] %16
w: |
V:2
 [A,,A,]4 [A,,A,]2 [A,,A,]2 | [A,,A,]3 [A,,A,] [A,,A,]4 | D,4 B,,2 =D,2 | z4 B,4 | %4
 C,4 [B,,G,]2 [A,,A,]2 | [E,G,E]3 [E,G,E] E2 z2 | [F,A,C]4 [D,F,]2 [D,F,]2 | [C,G,]8 | %8
 [B,,B,]4 E,2 E,2 | A,,3 A,, A,,4 | D,4 D,2 [D,A,]2 | [E,A,E]3 [E,G,E] [G,E]4 | %12
 [C,A,]4 [E,G,E]2 .[A,E]2 | [D,A,]3 D, D,4 | B,,4 E,2 E,2 | A,,8 |] %16
V:3
 x8 | x8 | x8 | E8 | x8 | c3 B z2 D2 | x8 | x8 | x8 | x8 | x8 | c3 B z2[K:bass] D,2 | %12
 [EA]4 B2 z _G | x8 | x8 | x8 |] %16
V:4
 x8 | x8 | x8 | E,6 z2 | x8 | z4 [E,G,]4 | x8 | x8 | x8 | x8 | x8 | z4 E,2 z2 | x8 | x8 | x8 | %15
 x8 |] %16
V:5
 x8 | x8 | x8 | z4 z2 D,2 | x8 | x8 | x8 | x8 | x8 | x8 | x8 | x8 | x8 | x8 | x8 | x8 |] %16

